html/images/os/wti.svg

<svg viewBox="0 0 300 209" xmlns="http://www.w3.org/2000/svg"><path d="m157 105v51h86v-26l-29-1h-28l-1-10c0-13-1-12 19-12h17v-26h-17c-20 0-19 1-19-15v-13h-28zm-144 14v37h129v-75h-28v48h-21l-1-24v-24h-14l-14 1v22c0 27 1 25-12 25h-11v-48h-28zm245-25v13h28v-26h-28zm1 20-1 21v21h28v-43h-14z" fill="#cb1538"/></svg>

<svg xmlns="http://www.w3.org/2000/svg" version="1" viewBox="0 0 300 209"><path fill="#cb1538" d="M157 105v51h86v-26l-29-1h-28l-1-10c0-13-1-12 19-12h17V81h-17c-20 0-19 1-19-15V53h-28v52zM13 119v37h129V81h-28v48H93l-1-24V81H78l-14 1v22c0 27 1 25-12 25H41V81H13v38zm245-25v13h28V81h-28v13zm1 20l-1 21v21h28v-43h-14l-13 1z"/></svg>
